X: 70
T: The Merry Archers
R: jig
M: 6/8
L: 1/8
Z: 2012 John Chambers <jc:trillian.mit.edu>
B: Saml. Ann & Peter Thompson "Twenty Four Country Dances for the Year 1791", London 1791, p.35 #2
K: G
% - - - - - - - - - - - - - - - - - - - - - - - - -
|:\
D2E G2A | B2B B2G | c2A B2G | B2G E3 |\
D2E G2A | B2c d2B | e2c A2G | F2A G2 :|
|: d |\
e2e f2g | d2d d2B | c2c d2e | B2B B3 |\
A2B c2A | B2c d2B | e2c A2G | F2A D3 "^D.C."y|]
% - - - - - - - - Dance description - - - - - - - -
%%begintext align
%% 1st Cu. set to the 2d Lady Hands round .|.
%% the same to the 2d Gent :|.
%% lead down the middle up again & cast off .|:
%% Allemande with your Partner :|:
%%endtext

%%sep 1 1 500
%%sep 1 1 500
